svgs/libreav.svg

<svg xmlns="http://www.w3.org/2000/svg" viewBox="0 0 192 192"><path d="M167.835 75.277a398.696 398.696 0 0 0 1.142-43.103 516.454 516.454 0 0 0-139.39 0 289.017 289.017 0 0 0 .652 43.103m15.819 50.832c10.518 17.667 27.437 34.679 53.204 38.441a74.279 74.279 0 0 0 31.394-12.9 74.58 74.58 0 0 0 22.421-25.541M16.5 82.433v34.924h17.408m7.869-22.696v22.696m13.046-14.395a8.768 8.768 0 0 1 2.557-6.186 8.712 8.712 0 0 1 6.168-2.562c2.312 0 4.532.922 6.168 2.562a8.767 8.767 0 0 1 2.556 6.186v5.685c0 2.32-.921 4.546-2.556 6.186a8.715 8.715 0 0 1-6.168 2.562 8.712 8.712 0 0 1-6.168-2.562 8.766 8.766 0 0 1-2.557-6.186m0 8.71V82.433m27.438 20.529a8.807 8.807 0 0 1 2.567-6.176 8.757 8.757 0 0 1 6.157-2.575m-8.724 0v23.146m33.553-4.334a8.418 8.418 0 0 1-3.099 3.18 8.377 8.377 0 0 1-4.28 1.154 8.712 8.712 0 0 1-6.155-2.548 8.768 8.768 0 0 1-2.57-6.162v-5.685a8.783 8.783 0 0 1 1.441-5.447 8.737 8.737 0 0 1 4.454-3.436 8.704 8.704 0 0 1 5.618 0 8.733 8.733 0 0 1 4.454 3.436 8.77 8.77 0 0 1 1.441 5.447v3.068H99.71m49.657 11.327-11.334-34.924-11.741 34.924m3.913-11.777h15.248M175.5 82.433l-11.334 34.924-11.741-34.924" fill="none" stroke="#000" stroke-width="8" stroke-linecap="round" stroke-linejoin="round"/><path d="M41.777 81.534c-.811 0-1.589.323-2.162.898a3.075 3.075 0 0 0 0 4.337 3.053 3.053 0 0 0 2.162.899 3.064 3.064 0 0 0 2.917-2.118c.2-.617.2-1.282 0-1.899a3.064 3.064 0 0 0-2.917-2.117Z"/></svg>

<svg
    xmlns="http://www.w3.org/2000/svg"
    viewBox="0 0 192 192"
    id="vector">
    <path
        id="path"
        d="M 167.835 75.277 C 168.993 60.94 169.374 46.551 168.977 32.174 C 122.726 25.875 75.838 25.875 29.587 32.174 C 28.731 46.537 28.949 60.945 30.239 75.277 M 46.058 126.109 C 56.576 143.776 73.495 160.788 99.262 164.55 C 110.577 162.733 121.322 158.317 130.656 151.65 C 139.99 144.982 147.664 136.24 153.077 126.109 M 16.5 82.433 L 16.5 117.357 L 33.908 117.357 M 41.777 94.661 L 41.777 117.357 M 54.823 102.962 C 54.824 100.643 55.744 98.416 57.38 96.776 C 59.015 95.136 61.235 94.214 63.548 94.214 C 65.86 94.214 68.08 95.136 69.716 96.776 C 71.351 98.416 72.272 100.643 72.272 102.962 L 72.272 108.647 C 72.272 110.967 71.351 113.193 69.716 114.833 C 68.08 116.473 65.86 117.395 63.548 117.395 C 61.235 117.395 59.015 116.473 57.38 114.833 C 55.744 113.193 54.824 110.967 54.823 108.647 M 54.823 117.357 L 54.823 82.433 M 82.261 102.962 C 82.271 100.646 83.195 98.424 84.828 96.786 C 86.461 95.148 88.676 94.222 90.985 94.211 M 82.261 94.211 L 82.261 117.357 M 115.814 113.023 C 115.084 114.342 114.013 115.44 112.715 116.203 C 111.417 116.965 109.939 117.364 108.435 117.357 C 106.129 117.358 103.914 116.44 102.28 114.809 C 100.645 113.177 99.721 110.96 99.71 108.647 L 99.71 102.962 C 99.579 101.037 100.086 99.122 101.151 97.515 C 102.217 95.909 103.784 94.701 105.605 94.079 C 107.426 93.458 109.402 93.458 111.223 94.079 C 113.045 94.701 114.611 95.909 115.677 97.515 C 116.743 99.122 117.25 101.037 117.118 102.962 L 117.118 106.03 L 99.71 106.03 M 149.367 117.357 L 138.033 82.433 L 126.292 117.357 M 130.205 105.58 L 145.453 105.58 M 175.5 82.433 L 164.166 117.357 L 152.425 82.433"
        fill="none"
        stroke="#000000"
        stroke-width="8"
        stroke-linecap="round"
        stroke-linejoin="round"/>
    <path
        id="path_1"
        d="M 41.777 81.534 C 40.966 81.534 40.188 81.857 39.615 82.432 C 39.042 83.007 38.719 83.788 38.719 84.601 C 38.719 85.414 39.042 86.195 39.615 86.769 C 40.188 87.344 40.966 87.668 41.777 87.668 C 42.424 87.67 43.055 87.466 43.579 87.085 C 44.103 86.705 44.494 86.167 44.694 85.55 C 44.894 84.933 44.894 84.268 44.694 83.651 C 44.494 83.034 44.103 82.496 43.579 82.116 C 43.055 81.735 42.424 81.532 41.777 81.534 Z"
        fill="#000000"
        stroke-width="8"/>
</svg>
